icon-themes/elementary_svg/cmd/32/scaletext.svg

<svg height="32" viewBox="0 0 8.4666665 8.4666669" width="32" xmlns="http://www.w3.org/2000/svg" xmlns:xlink="http://www.w3.org/1999/xlink"><linearGradient id="a" gradientUnits="userSpaceOnUse" x1="19.527" x2="19.722" y1="8.459" y2="-.829"><stop offset="0" stop-color="#fff"/><stop offset="1" stop-color="#fff" stop-opacity="0"/></linearGradient><radialGradient id="b" cx="4.333" cy="288.644" gradientTransform="matrix(-2.36637 .0798 -.0789 -2.33915 36.562 965.093)" gradientUnits="userSpaceOnUse" r="2.799"><stop offset="0" stop-color="#737373"/><stop offset=".262" stop-color="#636363"/><stop offset=".705" stop-color="#4b4b4b"/><stop offset="1" stop-color="#3f3f3f"/></radialGradient><path d="m4.59 295.067h-2.338l-.403 1.01h-1.077l2.205-5.292h1.003l2.127 5.292h-1.127zm-2.06-.8h1.756l-.784-2.394z" style="stroke:#000;stroke-width:.265;stroke-linecap:round;stroke-linejoin:round;stroke-opacity:.537;fill:url(#b)" transform="translate(-.64 -289.065)"/><path d="m2.338 1.72-2.205 5.292h.11l2.095-5.028h1.002l2.02 5.028h.107l-2.127-5.292zm-.34 3.48-.108.266h1.756l-.086-.266z" fill="#fff" opacity=".1"/><path d="m6.218.926-1.588 1.588h3.175z" fill="#fcaf3e" stroke="#ce5c00" stroke-linecap="round" stroke-linejoin="round" stroke-width=".264585"/><path d="m18 6-4.602-4.838 9.246.015z" fill="none" stroke="url(#a)" stroke-opacity=".827" stroke-width="1.283" transform="matrix(.20622 0 0 -.20622 2.506 2.493)"/><path d="m6.218 7.805-1.588-1.587h3.175z" fill="#fcaf3e" stroke="#ce5c00" stroke-linecap="round" stroke-linejoin="round" stroke-width=".264585"/><path d="m18 6-4.602-4.838 9.246.015z" fill="none" stroke="url(#a)" stroke-opacity=".827" stroke-width="1.283" transform="matrix(.20622 0 0 .20622 2.506 6.238)"/></svg>

<svg xmlns="http://www.w3.org/2000/svg" xmlns:xlink="http://www.w3.org/1999/xlink" height="32" viewBox="0 0 8.4666665 8.4666669" width="32"><defs><linearGradient xlink:href="#a" id="c" x1="19.527" y1="8.459" x2="19.722" y2="-.829" gradientUnits="userSpaceOnUse"/><linearGradient xlink:href="#a" id="d" gradientUnits="userSpaceOnUse" x1="19.527" y1="8.459" x2="19.722" y2="-.829"/></defs><radialGradient id="b" cx="4.333" cy="288.644" gradientTransform="matrix(-2.36637 .0798 -.0789 -2.33915 36.562 965.093)" gradientUnits="userSpaceOnUse" r="2.799"><stop offset="0" stop-color="#737373"/><stop offset=".262" stop-color="#636363"/><stop offset=".705" stop-color="#4b4b4b"/><stop offset="1" stop-color="#3f3f3f"/></radialGradient><linearGradient id="a" gradientUnits="userSpaceOnUse" x1="37.789" x2="40.78" y1="27.895" y2="32.102"><stop offset="0" stop-color="#fff"/><stop offset="1" stop-color="#fff" stop-opacity="0"/></linearGradient><path d="M4.59 295.067H2.252l-.403 1.01H.772l2.205-5.292H3.98l2.127 5.292H4.98zm-2.06-.8h1.756l-.784-2.394z" fill="url(#b)" stroke="#000" stroke-width=".265" stroke-linecap="round" stroke-linejoin="round" stroke-opacity=".537" transform="translate(-.64 -289.065)"/><path d="M2.338 1.72L.133 7.012h.11l2.095-5.028H3.34l2.02 5.028h.107L3.34 1.72zm-.34 3.48l-.108.266h1.756L3.56 5.2z" opacity=".1" fill="#fff"/><path d="M6.218.926L4.63 2.514h3.175z" fill="#fcaf3e" stroke="#ce5c00" stroke-width=".26458499999999996" stroke-linecap="round" stroke-linejoin="round"/><path d="M18 6l-4.602-4.838 9.246.015z" stroke="url(#c)" stroke-opacity=".827" transform="matrix(.20622 0 0 -.20622 2.506 2.493)" fill="none" stroke-width="1.283"/><g><path d="M6.218 7.805L4.63 6.218h3.175z" fill="#fcaf3e" stroke="#ce5c00" stroke-width=".26458499999999996" stroke-linecap="round" stroke-linejoin="round"/><path d="M18 6l-4.602-4.838 9.246.015z" stroke="url(#d)" stroke-opacity=".827" transform="translate(2.506 6.238) scale(.20622)" fill="none" stroke-width="1.283"/></g></svg>
